assets/img/braze_icons/face-sad.svg

<svg fill="none" height="24" viewBox="0 0 24 24" width="24" xmlns="http://www.w3.org/2000/svg"><path clip-rule="evenodd" d="m12 1c-6.07513 0-11 4.92487-11 11 0 6.0751 4.92487 11 11 11 6.0751 0 11-4.9249 11-11 0-6.07513-4.9249-11-11-11zm-1.3685 7.46464c.4282.34877.4927.97865.1439 1.40688-.5601.68778-1.37253 1.12848-2.27538 1.12848-.91286 0-1.7012-.449-2.26368-1.11439-.35655-.42177-.30368-1.05272.11809-1.40927s1.05273-.30368 1.40928.11809c.25752.30463.51918.40559.73631.40559.22715 0 .49477-.10927.72462-.39149.34877-.42823.97866-.49265 1.40686-.14389zm7 0c.4282.34877.4927.97865.1439 1.40688-.5601.68778-1.3725 1.12848-2.2754 1.12848-.9128 0-1.7012-.449-2.2637-1.11439-.3565-.42177-.3036-1.05272.1181-1.40927.4218-.35655 1.0528-.30368 1.4093.11809.2575.30463.5192.40559.7363.40559.2272 0 .4948-.10927.7246-.39149.3488-.42823.9787-.49265 1.4069-.14389zm-10.23142 8.33536c.44044.3304 1.06468.2424 1.39686-.1958l.00464-.0059c.00595-.0076.01727-.0216.03381-.0413.03315-.0395.08688-.1011.16012-.1776.1473-.1537.36864-.3622.65524-.5706.57705-.4197 1.37485-.8088 2.34935-.8088.9744 0 1.7722.3891 2.3493.8088.2866.2084.508.4169.6553.5706.0732.0765.1269.1381.1601.1776.0165.0197.0278.0337.0338.0413l.0046.0059c.3322.4382.9564.5262 1.3969.1958.4418-.3313.5314-.9581.2-1.4l-.1034-.1288c-.0586-.0699-.1416-.1645-.2481-.2756-.212-.2213-.522-.5128-.9228-.8043-.798-.5803-2.0002-1.1913-3.5257-1.1913-1.5256 0-2.72775.611-3.52569 1.1913-.4009.2915-.7108.583-.92288.8043-.10645.1111-.18944.2057-.24809.2756-.03541.0422-.06965.0853-.10336.1288-.33137.4419-.24183 1.0687.2 1.4z" fill="#801ed7" fill-rule="evenodd"/></svg>

<svg width="24" height="24" viewBox="0 0 24 24" fill="none" xmlns="http://www.w3.org/2000/svg">
<path fill-rule="evenodd" clip-rule="evenodd" d="M12 1C5.92487 1 1 5.92487 1 12C1 18.0751 5.92487 23 12 23C18.0751 23 23 18.0751 23 12C23 5.92487 18.0751 1 12 1ZM10.6315 8.46464C11.0597 8.81341 11.1242 9.44329 10.7754 9.87152C10.2153 10.5593 9.40287 11 8.50002 11C7.58716 11 6.79882 10.551 6.23634 9.88561C5.87979 9.46384 5.93266 8.83289 6.35443 8.47634C6.7762 8.11979 7.40716 8.17266 7.76371 8.59443C8.02123 8.89906 8.28289 9.00002 8.50002 9.00002C8.72717 9.00002 8.99479 8.89075 9.22464 8.60853C9.57341 8.1803 10.2033 8.11588 10.6315 8.46464ZM17.6315 8.46464C18.0597 8.81341 18.1242 9.44329 17.7754 9.87152C17.2153 10.5593 16.4029 11 15.5 11C14.5872 11 13.7988 10.551 13.2363 9.88561C12.8798 9.46384 12.9327 8.83289 13.3544 8.47634C13.7762 8.11979 14.4072 8.17266 14.7637 8.59443C15.0212 8.89906 15.2829 9.00002 15.5 9.00002C15.7272 9.00002 15.9948 8.89075 16.2246 8.60853C16.5734 8.1803 17.2033 8.11588 17.6315 8.46464ZM7.40008 16.8C7.84052 17.1304 8.46476 17.0424 8.79694 16.6042L8.80158 16.5983C8.80753 16.5907 8.81885 16.5767 8.83539 16.557C8.86854 16.5175 8.92227 16.4559 8.99551 16.3794C9.14281 16.2257 9.36415 16.0172 9.65075 15.8088C10.2278 15.3891 11.0256 15 12.0001 15C12.9745 15 13.7723 15.3891 14.3494 15.8088C14.636 16.0172 14.8574 16.2257 15.0047 16.3794C15.0779 16.4559 15.1316 16.5175 15.1648 16.557C15.1813 16.5767 15.1926 16.5907 15.1986 16.5983L15.2032 16.6042C15.5354 17.0424 16.1596 17.1304 16.6001 16.8C17.0419 16.4687 17.1315 15.8419 16.8001 15.4L16.6967 15.2712C16.6381 15.2013 16.5551 15.1067 16.4486 14.9956C16.2366 14.7743 15.9266 14.4828 15.5258 14.1913C14.7278 13.611 13.5256 13 12.0001 13C10.4745 13 9.27235 13.611 8.47441 14.1913C8.07351 14.4828 7.76361 14.7743 7.55153 14.9956C7.44508 15.1067 7.36209 15.2013 7.30344 15.2712C7.26803 15.3134 7.23379 15.3565 7.20008 15.4C6.86871 15.8419 6.95825 16.4687 7.40008 16.8Z" fill="#801ED7"/>
</svg>
